Numix/16/status/indicator-keyboard-Ph-2.svg

<?xml version="1.0" encoding="UTF-8" standalone="no"?>
<svg
   xmlns:dc="http://purl.org/dc/elements/1.1/"
   xmlns:cc="http://creativecommons.org/ns#"
   xmlns:rdf="http://www.w3.org/1999/02/22-rdf-syntax-ns#"
   xmlns:svg="http://www.w3.org/2000/svg"
   xmlns="http://www.w3.org/2000/svg"
   xmlns:sodipodi="http://sodipodi.sourceforge.net/DTD/sodipodi-0.dtd"
   xmlns:inkscape="http://www.inkscape.org/namespaces/inkscape"
   viewBox="0 0 16 16"
   id="svg2"
   version="1.1"
   inkscape:version="0.91 r13725"
   sodipodi:docname="indicator-keyboard-Ph-2.svg">
  <metadata
     id="metadata14">
    <rdf:RDF>
      <cc:Work
         rdf:about="">
        <dc:format>image/svg+xml</dc:format>
        <dc:type
           rdf:resource="http://purl.org/dc/dcmitype/StillImage" />
      </cc:Work>
    </rdf:RDF>
  </metadata>
  <defs
     id="defs12" />
  <sodipodi:namedview
     pagecolor="#ffffff"
     bordercolor="#666666"
     borderopacity="1"
     objecttolerance="10"
     gridtolerance="10"
     guidetolerance="10"
     inkscape:pageopacity="0"
     inkscape:pageshadow="2"
     inkscape:window-width="459"
     inkscape:window-height="369"
     id="namedview10"
     showgrid="false"
     inkscape:zoom="14.75"
     inkscape:cx="8"
     inkscape:cy="8"
     inkscape:window-x="65"
     inkscape:window-y="24"
     inkscape:window-maximized="0"
     inkscape:current-layer="svg2" />
  <path
     style="fill:#ececec;fill-opacity:1"
     d="M 1.5996094 0 C 0.71320937 2.9605947e-16 0 0.71320937 0 1.5996094 L 0 14.400391 C 2.9605947e-16 15.286791 0.71320937 16 1.5996094 16 L 14.400391 16 C 15.286791 16 16 15.286791 16 14.400391 L 16 1.5996094 C 16 0.71320937 15.286791 0 14.400391 0 L 1.5996094 0 z M 7.65625 4.1113281 L 7.65625 6.578125 C 7.84825 6.506125 8.0422344 6.4520156 8.2402344 6.4160156 C 8.4382344 6.3740156 8.6359844 6.3535156 8.8339844 6.3535156 C 9.1939844 6.3535156 9.494375 6.4038594 9.734375 6.5058594 C 9.9743751 6.6078594 10.166547 6.7552656 10.310547 6.9472656 C 10.454547 7.1332656 10.553422 7.3570938 10.607422 7.6210938 C 10.667422 7.8850937 10.697266 8.1761406 10.697266 8.4941406 L 10.697266 11.095703 L 10.113281 11.095703 L 10.113281 8.6835938 C 10.113281 8.3535938 10.089016 8.0756562 10.041016 7.8476562 C 9.9990156 7.6196563 9.9244064 7.4330625 9.8164062 7.2890625 C 9.7144062 7.1450625 9.5763437 7.0424219 9.4023438 6.9824219 C 9.2283438 6.9164219 9.0081406 6.8847656 8.7441406 6.8847656 C 8.6421406 6.8847656 8.5321094 6.8921562 8.4121094 6.9101562 C 8.2981094 6.9281563 8.1898906 6.9506094 8.0878906 6.9746094 C 7.9858906 6.9926094 7.8925937 7.0131094 7.8085938 7.0371094 C 7.7305937 7.0611094 7.68025 7.0797969 7.65625 7.0917969 L 7.65625 11.095703 L 7.0703125 11.095703 L 7.0703125 4.2207031 L 7.65625 4.1113281 z M 3.3554688 4.8046875 C 4.2374688 4.8046875 4.8941719 4.9725937 5.3261719 5.3085938 C 5.7581719 5.6445937 5.9746094 6.1222344 5.9746094 6.7402344 C 5.9746094 7.0942344 5.9111563 7.3964375 5.7851562 7.6484375 C 5.6591563 7.8944375 5.4800937 8.0959531 5.2460938 8.2519531 C 5.0120938 8.4019531 4.7228594 8.5139375 4.3808594 8.5859375 C 4.0448594 8.6519375 3.6642813 8.6835937 3.2382812 8.6835938 L 2.3925781 8.6835938 L 2.3925781 11.095703 L 1.78125 11.095703 L 1.78125 4.9765625 C 1.99725 4.9165625 2.2491094 4.8736094 2.5371094 4.8496094 C 2.8311094 4.8196094 3.1034688 4.8046875 3.3554688 4.8046875 z M 3.3828125 5.3359375 C 3.1548125 5.3359375 2.958875 5.3452813 2.796875 5.3632812 C 2.640875 5.3752813 2.5065781 5.3864375 2.3925781 5.3984375 L 2.3925781 8.1523438 L 3.1660156 8.1523438 C 3.4960156 8.1523438 3.7926406 8.1356094 4.0566406 8.0996094 C 4.3266406 8.0576094 4.5561875 7.9848125 4.7421875 7.8828125 C 4.9341875 7.7748125 5.0796406 7.6274062 5.1816406 7.4414062 C 5.2836406 7.2554062 5.3359375 7.0184688 5.3359375 6.7304688 C 5.3359375 6.4544687 5.2780625 6.226875 5.1640625 6.046875 C 5.0560625 5.866875 4.9086562 5.7250469 4.7226562 5.6230469 C 4.5426563 5.5150469 4.3355625 5.4404375 4.1015625 5.3984375 C 3.8675625 5.3564375 3.6288125 5.3359375 3.3828125 5.3359375 z M 12.892578 8.7539062 C 13.286478 8.7539062 13.58235 8.851875 13.78125 9.046875 C 13.98015 9.237975 14.080078 9.5044563 14.080078 9.8476562 C 14.080078 9.9997563 14.052647 10.14475 13.998047 10.28125 C 13.943447 10.41385 13.868991 10.543169 13.775391 10.667969 C 13.685691 10.792769 13.581844 10.912297 13.464844 11.029297 C 13.347844 11.146297 13.228322 11.263859 13.107422 11.380859 C 13.006022 11.478359 12.908047 11.578288 12.810547 11.679688 C 12.716947 11.777188 12.630734 11.877116 12.552734 11.978516 C 12.478634 12.076016 12.417894 12.172031 12.371094 12.269531 C 12.328194 12.363131 12.306641 12.457181 12.306641 12.550781 L 12.306641 12.5625 L 14.21875 12.5625 L 14.21875 12.896484 L 11.884766 12.896484 C 11.884766 12.888684 11.88284 12.874969 11.878906 12.855469 L 11.878906 12.755859 C 11.878906 12.572559 11.912216 12.402094 11.978516 12.246094 C 12.044816 12.086194 12.129069 11.937275 12.230469 11.796875 C 12.335769 11.656475 12.451372 11.525197 12.576172 11.404297 C 12.704872 11.283397 12.828313 11.165834 12.945312 11.052734 C 13.042812 10.959134 13.13295 10.869003 13.21875 10.783203 C 13.30845 10.693503 13.386825 10.603366 13.453125 10.509766 C 13.519425 10.416166 13.572328 10.316237 13.611328 10.210938 C 13.650328 10.105638 13.669922 9.9900344 13.669922 9.8652344 C 13.669922 9.5922344 13.595466 9.39825 13.447266 9.28125 C 13.302966 9.16035 13.120738 9.0996094 12.898438 9.0996094 C 12.773637 9.0996094 12.661953 9.1152844 12.564453 9.1464844 C 12.466953 9.1776844 12.380741 9.2149125 12.306641 9.2578125 C 12.236441 9.2968125 12.1757 9.3379594 12.125 9.3808594 C 12.0743 9.4237594 12.037072 9.4570688 12.013672 9.4804688 L 11.814453 9.2167969 C 11.837853 9.1894969 11.879 9.1503094 11.9375 9.0996094 C 11.9999 9.0450094 12.076316 8.9921062 12.166016 8.9414062 C 12.259616 8.8907063 12.367381 8.8476 12.488281 8.8125 C 12.609181 8.7735 12.744378 8.7539063 12.892578 8.7539062 z "
     id="path4" />
</svg>

<svg xmlns="http://www.w3.org/2000/svg" viewBox="0 0 16 16">
 <path d="m 1.6 0 c -0.886 0 -1.6 0.713 -1.6 1.6 l 0 12.801 c 0 0.886 0.713 1.6 1.6 1.6 l 12.801 0 c 0.886 0 1.6 -0.713 1.6 -1.6 l 0 -12.801 c 0 -0.886 -0.713 -1.6 -1.6 -1.6 l -12.801 0 z m 6.06 4.111 l 0 2.467 c 0.192 -0.072 0.386 -0.126 0.584 -0.162 c 0.198 -0.042 0.396 -0.063 0.594 -0.063 c 0.36 0 0.66 0.05 0.9 0.152 c 0.24 0.102 0.432 0.249 0.576 0.441 c 0.144 0.186 0.243 0.41 0.297 0.674 c 0.06 0.264 0.09 0.555 0.09 0.873 l 0 2.602 l -0.584 0 l 0 -2.412 c 0 -0.33 -0.024 -0.608 -0.072 -0.836 c -0.042 -0.228 -0.117 -0.415 -0.225 -0.559 c -0.102 -0.144 -0.24 -0.247 -0.414 -0.307 c -0.174 -0.066 -0.394 -0.098 -0.658 -0.098 c -0.102 0 -0.212 0.007 -0.332 0.025 c -0.114 0.018 -0.222 0.04 -0.324 0.064 c -0.102 0.018 -0.195 0.038 -0.279 0.063 c -0.078 0.024 -0.128 0.043 -0.152 0.055 l 0 4 l -0.586 0 l 0 -6.875 l 0.586 -0.109 z m -4.301 0.693 c 0.882 0 1.539 0.168 1.971 0.504 c 0.432 0.336 0.648 0.814 0.648 1.432 c 0 0.354 -0.063 0.656 -0.189 0.908 c -0.126 0.246 -0.305 0.448 -0.539 0.604 c -0.234 0.15 -0.523 0.262 -0.865 0.334 c -0.336 0.066 -0.717 0.098 -1.143 0.098 l -0.846 0 l 0 2.412 l -0.611 0 l 0 -6.119 c 0.216 -0.06 0.468 -0.103 0.756 -0.127 c 0.294 -0.03 0.566 -0.045 0.818 -0.045 z m 0.027 0.531 c -0.228 0 -0.424 0.009 -0.586 0.027 c -0.156 0.012 -0.29 0.023 -0.404 0.035 l 0 2.754 l 0.773 0 c 0.33 0 0.627 -0.017 0.891 -0.053 c 0.27 -0.042 0.5 -0.115 0.686 -0.217 c 0.192 -0.108 0.337 -0.255 0.439 -0.441 c 0.102 -0.186 0.154 -0.423 0.154 -0.711 c 0 -0.276 -0.058 -0.504 -0.172 -0.684 c -0.108 -0.18 -0.255 -0.322 -0.441 -0.424 c -0.18 -0.108 -0.387 -0.183 -0.621 -0.225 c -0.234 -0.042 -0.473 -0.063 -0.719 -0.063 z m 9.51 3.418 c 0.394 0 0.69 0.098 0.889 0.293 c 0.199 0.191 0.299 0.458 0.299 0.801 c 0 0.152 -0.027 0.297 -0.082 0.434 c -0.055 0.133 -0.129 0.262 -0.223 0.387 c -0.09 0.125 -0.194 0.244 -0.311 0.361 c -0.117 0.117 -0.237 0.235 -0.357 0.352 c -0.101 0.098 -0.199 0.197 -0.297 0.299 c -0.094 0.098 -0.18 0.197 -0.258 0.299 c -0.074 0.097 -0.135 0.194 -0.182 0.291 c -0.043 0.094 -0.064 0.188 -0.064 0.281 l 0 0.012 l 1.912 0 l 0 0.334 l -2.334 0 c 0 -0.008 -0.002 -0.022 -0.006 -0.041 l 0 -0.1 c 0 -0.183 0.033 -0.354 0.1 -0.51 c 0.066 -0.16 0.151 -0.309 0.252 -0.449 c 0.105 -0.14 0.221 -0.272 0.346 -0.393 c 0.129 -0.121 0.252 -0.238 0.369 -0.352 c 0.098 -0.094 0.188 -0.184 0.273 -0.27 c 0.09 -0.09 0.168 -0.18 0.234 -0.273 c 0.066 -0.094 0.119 -0.194 0.158 -0.299 c 0.039 -0.105 0.059 -0.221 0.059 -0.346 c 0 -0.273 -0.074 -0.467 -0.223 -0.584 c -0.144 -0.121 -0.327 -0.182 -0.549 -0.182 c -0.125 0 -0.236 0.016 -0.334 0.047 c -0.098 0.031 -0.184 0.068 -0.258 0.111 c -0.07 0.039 -0.131 0.08 -0.182 0.123 c -0.051 0.043 -0.088 0.076 -0.111 0.1 l -0.199 -0.264 c 0.023 -0.027 0.065 -0.066 0.123 -0.117 c 0.062 -0.055 0.139 -0.108 0.229 -0.158 c 0.094 -0.051 0.201 -0.094 0.322 -0.129 c 0.121 -0.039 0.256 -0.059 0.404 -0.059 z" style="fill:#ececec;fill-opacity:1"/>
</svg>
